;FLAVOR:Marlin
;TIME:17010
;Filament used: 14.2874m
;Layer height: 0.2
;MINX:60.502
;MINY:70.502
;MINZ:0.2
;MAXX:174.498
;MAXY:164.498
;MAXZ:20
;Generated with Cura_SteamEngine 4.11.0
M140 S50
M105
M190 S50
M104 S200
M105
M109 S200
M82 ;absolute extrusion mode
; Ender 3 Custom Start G-code
G92 E0 ; Reset Extruder
G28 ; Home all axes
G1 Z2.0 F3000 ; Move Z Axis up little to prevent scratching of Heat Bed
G1 X0.1 Y20 Z0.3 F5000.0 ; Move to start position
G1 X0.1 Y200.0 Z0.3 F1500.0 E15 ; Draw the first line
G1 X0.4 Y200.0 Z0.3 F5000.0 ; Move to side a little
G1 X0.4 Y20 Z0.3 F1500.0 E30 ; Draw the second line
G92 E0 ; Reset Extruder
G1 Z2.0 F3000 ; Move Z Axis up little to prevent scratching of Heat Bed
G1 X5 Y20 Z0.3 F5000.0 ; Move over to prevent blob squish
G92 E0
G92 E0
G1 F2700 E-5
;LAYER_COUNT:100
;LAYER:0
M107
G0 F6000 X64.401 Y73.118 Z0.2
;TYPE:SKIRT
G1 F2700 E0
G1 F1200 X65.142 Y72.543 E0.0312
G1 X65.929 Y72.033 E0.06239
G1 X66.757 Y71.592 E0.09359
G1 X67.619 Y71.223 E0.12478
G1 X68.51 Y70.929 E0.15598
G1 X69.422 Y70.711 E0.18717
G1 X70.349 Y70.573 E0.21834
G1 X71.203 Y70.515 E0.24681
G1 X71.523 Y70.506 E0.25746
G1 X71.832 Y70.502 E0.26774
G1 X76.816 Y70.502 E0.43351
G1 X78.115 Y70.519 E0.47671
G1 X80.722 Y70.519 E0.56342
G1 X81.479 Y70.504 E0.58861
G1 X81.726 Y70.502 E0.59682
G1 X92.97 Y70.503 E0.9708
G1 X94.115 Y70.519 E1.00889
G1 X96.722 Y70.519 E1.09559
G1 X97.479 Y70.504 E1.12078
G1 X97.726 Y70.502 E1.12899
G1 X106.97 Y70.503 E1.43645
G1 X108.115 Y70.519 E1.47454
G1 X110.722 Y70.519 E1.56125
G1 X111.479 Y70.504 E1.58643
G1 X111.726 Y70.502 E1.59464
G1 X122.971 Y70.503 E1.96865
G1 X124.116 Y70.519 E2.00674
G1 X126.723 Y70.519 E2.09345
G1 X127.48 Y70.504 E2.11863
G1 X127.727 Y70.502 E2.12685
G1 X136.971 Y70.503 E2.4343
G1 X138.116 Y70.519 E2.47239
G1 X140.723 Y70.519 E2.5591
G1 X141.48 Y70.504 E2.58428
G1 X141.727 Y70.502 E2.5925
G1 X152.971 Y70.503 E2.96648
G1 X154.116 Y70.519 E3.00456
G1 X156.723 Y70.519 E3.09127
G1 X157.48 Y70.504 E3.11645
G1 X157.727 Y70.502 E3.12467
G1 X162.949 Y70.503 E3.29835
G1 X163.647 Y70.513 E3.32157
G1 X164.583 Y70.567 E3.35276
G1 X165.511 Y70.699 E3.38393
G1 X166.425 Y70.911 E3.41514
G1 X167.317 Y71.2 E3.44632
G1 X168.182 Y71.563 E3.47753
G1 X169.012 Y71.999 E3.50871
G1 X169.803 Y72.504 E3.53992
G1 X170.547 Y73.075 E3.57111
G1 X171.24 Y73.707 E3.60231
G1 X171.877 Y74.395 E3.63349
G1 X172.452 Y75.136 E3.66469
G1 X172.963 Y75.922 E3.69587
G1 X173.405 Y76.75 E3.72709
G1 X173.774 Y77.612 E3.75828
G1 X174.069 Y78.502 E3.78946
G1 X174.287 Y79.414 E3.82065
G1 X174.427 Y80.342 E3.85186
G1 X174.485 Y81.203 E3.88057
G1 X174.494 Y81.523 E3.89121
G1 X174.498 Y81.832 E3.90149
G1 X174.497 Y96.97 E4.40498
G1 X174.481 Y98.115 E4.44307
G1 X174.481 Y100.722 E4.52978
G1 X174.496 Y101.479 E4.55496
G1 X174.498 Y101.726 E4.56318
G1 X174.497 Y114.971 E5.00371
G1 X174.481 Y116.117 E5.04183
G1 X174.481 Y118.723 E5.1285
G1 X174.496 Y119.48 E5.15369
G1 X174.498 Y119.727 E5.1619
G1 X174.497 Y132.971 E5.6024
G1 X174.481 Y134.116 E5.64049
G1 X174.481 Y136.723 E5.7272
G1 X174.496 Y137.48 E5.75238
G1 X174.498 Y137.727 E5.76059
G1 X174.497 Y152.898 E6.26518
G1 X174.488 Y153.625 E6.28937
G1 X174.437 Y154.562 E6.32058
G1 X174.305 Y155.49 E6.35175
G1 X174.096 Y156.404 E6.38294
G1 X173.809 Y157.297 E6.41413
G1 X173.447 Y158.163 E6.44535
G1 X173.013 Y158.994 E6.47653
G1 X172.509 Y159.785 E6.50773
G1 X171.94 Y160.53 E6.53891
G1 X171.309 Y161.225 E6.57013
G1 X170.622 Y161.863 E6.60131
G1 X169.883 Y162.44 E6.6325
G1 X169.097 Y162.952 E6.6637
G1 X168.271 Y163.395 E6.69487
G1 X167.409 Y163.767 E6.7261
G1 X166.52 Y164.063 E6.75726
G1 X165.608 Y164.283 E6.78847
G1 X164.681 Y164.424 E6.81965
G1 X163.797 Y164.485 E6.84912
G1 X163.476 Y164.494 E6.8598
G1 X163.168 Y164.498 E6.87005
G1 X158.03 Y164.497 E7.04094
G1 X156.885 Y164.481 E7.07903
G1 X154.278 Y164.481 E7.16574
G1 X153.521 Y164.496 E7.19092
G1 X153.274 Y164.498 E7.19913
G1 X142.03 Y164.497 E7.57311
G1 X140.885 Y164.481 E7.6112
G1 X138.278 Y164.481 E7.69791
G1 X137.521 Y164.496 E7.72309
G1 X137.274 Y164.498 E7.73131
G1 X128.03 Y164.497 E8.03876
G1 X126.885 Y164.481 E8.07685
G1 X124.278 Y164.481 E8.16356
G1 X123.521 Y164.496 E8.18874
G1 X123.274 Y164.498 E8.19696
G1 X112.029 Y164.497 E8.57097
G1 X110.884 Y164.481 E8.60905
G1 X108.277 Y164.481 E8.69576
G1 X107.52 Y164.496 E8.72095
G1 X107.273 Y164.498 E8.72916
G1 X98.029 Y164.497 E9.03662
G1 X96.884 Y164.481 E9.0747
G1 X94.277 Y164.481 E9.16141
G1 X93.52 Y164.496 E9.1866
G1 X93.273 Y164.498 E9.19481
G1 X82.029 Y164.497 E9.56879
G1 X80.884 Y164.481 E9.60688
G1 X78.277 Y164.481 E9.69358
G1 X77.52 Y164.496 E9.71877
G1 X77.273 Y164.498 E9.72698
G1 X72.067 Y164.497 E9.90013
G1 X71.369 Y164.488 E9.92335
G1 X70.433 Y164.436 E9.95453
G1 X69.504 Y164.304 E9.98574
G1 X68.59 Y164.094 E10.01693
G1 X67.697 Y163.807 E10.04813
G1 X66.832 Y163.444 E10.07933
G1 X66.001 Y163.01 E10.11051
G1 X65.21 Y162.506 E10.14171
G1 X64.465 Y161.936 E10.17291
G1 X63.771 Y161.305 E10.2041
G1 X63.134 Y160.618 E10.23527
G1 X62.557 Y159.878 E10.26648
G1 X62.045 Y159.092 E10.29768
G1 X61.602 Y158.265 E10.32888
G1 X61.231 Y157.404 E10.36006
G1 X60.935 Y156.514 E10.39126
G1 X60.716 Y155.602 E10.42245
G1 X60.575 Y154.675 E10.45364
G1 X60.515 Y153.786 E10.48328
G1 X60.506 Y153.453 E10.49435
G1 X60.502 Y153.156 E10.50423
G1 X60.503 Y138.03 E11.00733
G1 X60.519 Y136.863 E11.04614
G1 X60.519 Y134.278 E11.13212
G1 X60.504 Y133.521 E11.15731
G1 X60.502 Y133.274 E11.16552
G1 X60.503 Y120.029 E11.60605
G1 X60.519 Y118.863 E11.64484
G1 X60.519 Y116.277 E11.73085
G1 X60.504 Y115.52 E11.75603
G1 X60.502 Y115.273 E11.76425
G1 X60.503 Y102.029 E12.20474
G1 X60.519 Y100.862 E12.24356
G1 X60.519 Y98.277 E12.32954
G1 X60.504 Y97.52 E12.35472
G1 X60.502 Y97.273 E12.36294
G1 X60.503 Y82.011 E12.87055
G1 X60.513 Y81.346 E12.89267
G1 X60.567 Y80.409 E12.92389
G1 X60.701 Y79.481 E12.95508
G1 X60.913 Y78.567 E12.98628
G1 X61.202 Y77.675 E13.01747
G1 X61.567 Y76.811 E13.04866
G1 X62.003 Y75.981 E13.07985
G1 X62.509 Y75.191 E13.11105
G1 X63.08 Y74.447 E13.14224
G1 X63.712 Y73.754 E13.17344
G1 X64.401 Y73.118 E13.20463
G0 F6000 X64.79 Y73.315
G1 F1200 X65.526 Y72.763 E13.23522
G1 X66.308 Y72.276 E13.26587
G1 X67.129 Y71.86 E13.29648
G1 X67.983 Y71.516 E13.3271
G1 X68.863 Y71.247 E13.35771
G1 X69.764 Y71.056 E13.38834
G1 X70.678 Y70.944 E13.41897
G1 X71.214 Y70.915 E13.43682
G1 X71.534 Y70.906 E13.44747
G1 X71.832 Y70.902 E13.45738
G1 X76.816 Y70.902 E13.62315
G1 X78.109 Y70.919 E13.66616
G1 X80.731 Y70.919 E13.75336
G1 X81.482 Y70.904 E13.77835
G1 X81.729 Y70.902 E13.78656
G1 X92.964 Y70.903 E14.16024
G1 X94.109 Y70.919 E14.19833
G1 X96.731 Y70.919 E14.28554
G1 X97.482 Y70.904 E14.31052
G1 X97.729 Y70.902 E14.31873
G1 X106.964 Y70.903 E14.62589
G1 X108.109 Y70.919 E14.66398
G1 X110.731 Y70.919 E14.75119
G1 X111.482 Y70.904 E14.77617
G1 X111.729 Y70.902 E14.78439
G1 X122.965 Y70.903 E15.1581
G1 X124.11 Y70.919 E15.19618
G1 X126.732 Y70.919 E15.28339
G1 X127.483 Y70.904 E15.30837
G1 X127.73 Y70.902 E15.31659
G1 X136.965 Y70.903 E15.62375
G1 X138.11 Y70.919 E15.66183
G1 X140.732 Y70.919 E15.74904
G1 X141.483 Y70.904 E15.77403
G1 X141.73 Y70.902 E15.78224
G1 X152.965 Y70.903 E16.15592
G1 X154.11 Y70.919 E16.19401
G1 X156.732 Y70.919 E16.28121
G1 X157.483 Y70.904 E16.3062
G1 X157.73 Y70.902 E16.31441
G1 X162.943 Y70.903 E16.4878
G1 X163.641 Y70.913 E16.51102
G1 X164.56 Y70.966 E16.54163
G1 X165.471 Y71.099 E16.57225
G1 X166.367 Y71.31 E16.60287
G1 X167.241 Y71.598 E16.63348
G1 X168.088 Y71.961 E16.66413
G1 X168.899 Y72.396 E16.69473
G1 X169.669 Y72.9 E16.72534
G1 X170.393 Y73.469 E16.75597
G1 X171.065 Y74.099 E16.78661
G1 X171.68 Y74.784 E16.81723
G1 X172.233 Y75.52 E16.84785
G1 X172.72 Y76.301 E16.87846
G1 X173.137 Y77.122 E16.90908
G1 X173.482 Y77.976 E16.93972
G1 X173.751 Y78.856 E16.97032
G1 X173.943 Y79.757 E17.00097
G1 X174.056 Y80.67 E17.03156
G1 X174.085 Y81.214 E17.04968
G1 X174.094 Y81.534 E17.06033
G1 X174.098 Y81.832 E17.07024
G1 X174.097 Y96.964 E17.57353
G1 X174.081 Y98.109 E17.61162
G1 X174.081 Y100.731 E17.69883
G1 X174.096 Y101.482 E17.72381
G1 X174.098 Y101.729 E17.73203
G1 X174.097 Y114.965 E18.17226
G1 X174.081 Y116.111 E18.21038
G1 X174.081 Y118.732 E18.29755
G1 X174.096 Y119.483 E18.32254
G1 X174.098 Y119.73 E18.33075
G1 X174.097 Y132.965 E18.77095
G1 X174.081 Y134.11 E18.80904
G1 X174.081 Y136.732 E18.89625
G1 X174.096 Y137.483 E18.92123
G1 X174.098 Y137.73 E18.92944
G1 X174.097 Y152.893 E19.43377
G1 X174.088 Y153.62 E19.45795
G1 X174.037 Y154.539 E19.48856
G1 X173.906 Y155.451 E19.51921
G1 X173.696 Y156.347 E19.54982
G1 X173.41 Y157.222 E19.58043
G1 X173.049 Y158.069 E19.61106
G1 X172.615 Y158.881 E19.64168
G1 X172.113 Y159.653 E19.67231
G1 X171.545 Y160.378 E19.70294
G1 X170.917 Y161.051 E19.73356
G1 X170.233 Y161.667 E19.76417
G1 X169.498 Y162.221 E19.79479
G1 X168.718 Y162.71 E19.8254
G1 X167.898 Y163.129 E19.85603
G1 X167.045 Y163.475 E19.88665
G1 X166.165 Y163.746 E19.91727
G1 X165.265 Y163.939 E19.94789
G1 X164.351 Y164.054 E19.97853
G1 X163.786 Y164.085 E19.99735
G1 X163.465 Y164.094 E20.00803
G1 X163.168 Y164.098 E20.01791
G1 X158.036 Y164.097 E20.1886
G1 X156.891 Y164.081 E20.22669
G1 X154.269 Y164.081 E20.31389
G1 X153.518 Y164.096 E20.33888
G1 X153.271 Y164.098 E20.34709
G1 X142.036 Y164.097 E20.72077
G1 X140.891 Y164.081 E20.75886
G1 X138.269 Y164.081 E20.84606
G1 X137.518 Y164.096 E20.87105
G1 X137.271 Y164.098 E20.87926
G1 X128.036 Y164.097 E21.18642
G1 X126.891 Y164.081 E21.22451
G1 X124.269 Y164.081 E21.31172
G1 X123.518 Y164.096 E21.3367
G1 X123.271 Y164.098 E21.34491
G1 X112.035 Y164.097 E21.71863
G1 X110.89 Y164.081 E21.75671
G1 X108.268 Y164.081 E21.84392
G1 X107.517 Y164.096 E21.8689
G1 X107.27 Y164.098 E21.87712
G1 X98.035 Y164.097 E22.18428
G1 X96.89 Y164.081 E22.22236
G1 X94.268 Y164.081 E22.30957
G1 X93.517 Y164.096 E22.33455
G1 X93.27 Y164.098 E22.34277
G1 X82.035 Y164.097 E22.71645
G1 X80.89 Y164.081 E22.75453
G1 X78.268 Y164.081 E22.84174
G1 X77.517 Y164.096 E22.86673
G1 X77.27 Y164.098 E22.87494
G1 X72.072 Y164.097 E23.04783
G1 X71.374 Y164.088 E23.07104
G1 X70.455 Y164.036 E23.10166
G1 X69.544 Y163.905 E23.13227
G1 X68.648 Y163.695 E23.16288
G1 X67.773 Y163.408 E23.19351
G1 X66.926 Y163.046 E23.22414
G1 X66.114 Y162.612 E23.25477
G1 X65.343 Y162.11 E23.28537
G1 X64.618 Y161.542 E23.316
G1 X63.945 Y160.913 E23.34664
G1 X63.33 Y160.229 E23.37723
G1 X62.776 Y159.494 E23.40784
G1 X62.288 Y158.713 E23.43847
G1 X61.869 Y157.893 E23.4691
G1 X61.523 Y157.04 E23.49972
G1 X61.253 Y156.16 E23.53033
G1 X61.06 Y155.259 E23.56098
G1 X60.946 Y154.346 E23.59158
G1 X60.915 Y153.775 E23.6106
G1 X60.906 Y153.442 E23.62168
G1 X60.902 Y153.156 E23.6312
G1 X60.903 Y138.036 E24.13409
G1 X60.919 Y136.863 E24.17311
G1 X60.919 Y134.269 E24.25938
G1 X60.904 Y133.518 E24.28437
G1 X60.902 Y133.271 E24.29258
G1 X60.903 Y120.035 E24.73281
G1 X60.919 Y118.863 E24.7718
G1 X60.919 Y116.268 E24.85811
G1 X60.904 Y115.517 E24.88309
G1 X60.902 Y115.27 E24.89131
G1 X60.903 Y102.035 E25.33151
G1 X60.919 Y100.862 E25.37052
G1 X60.919 Y98.268 E25.4568
G1 X60.904 Y97.517 E25.48178
G1 X60.902 Y97.27 E25.49
G1 X60.903 Y82.017 E25.99732
G1 X60.913 Y81.352 E26.01944
G1 X60.967 Y80.433 E26.05005
G1 X61.1 Y79.522 E26.08068
G1 X61.312 Y78.626 E26.1113
G1 X61.601 Y77.751 E26.14195
G1 X61.965 Y76.906 E26.17255
G1 X62.4 Y76.095 E26.20316
G1 X62.905 Y75.324 E26.23381
G1 X63.474 Y74.601 E26.26442
G1 X64.104 Y73.929 E26.29505
G1 X64.79 Y73.315 E26.32567
G0 F6000 X65.177 Y73.516
G1 F1200 X65.909 Y72.987 E26.35571
G1 X66.685 Y72.525 E26.38575
G1 X67.499 Y72.134 E26.41578
G1 X68.344 Y71.815 E26.44583
G1 X69.214 Y71.573 E26.47586
G1 X70.102 Y71.409 E26.50589
G1 X71.225 Y71.315 E26.54338
G1 X71.545 Y71.306 E26.55402
G1 X71.832 Y71.302 E26.56357
G1 X76.816 Y71.302 E26.72934
G1 X78.103 Y71.319 E26.77215
G1 X80.739 Y71.319 E26.85982
G1 X81.485 Y71.304 E26.88464
G1 X81.732 Y71.302 E26.89285
G1 X92.958 Y71.303 E27.26623
G1 X94.103 Y71.319 E27.30432
G1 X96.739 Y71.319 E27.39199
G1 X97.485 Y71.304 E27.41681
G1 X97.732 Y71.302 E27.42503
G1 X106.958 Y71.303 E27.73188
G1 X108.103 Y71.319 E27.76997
G1 X110.739 Y71.319 E27.85764
G1 X111.485 Y71.304 E27.88246
G1 X111.732 Y71.302 E27.89068
G1 X122.959 Y71.303 E28.26409
G1 X124.104 Y71.319 E28.30217
G1 X126.74 Y71.319 E28.38985
G1 X127.486 Y71.304 E28.41467
G1 X127.733 Y71.302 E28.42288
G1 X136.959 Y71.303 E28.72974
G1 X138.104 Y71.319 E28.76783
G1 X140.74 Y71.319 E28.8555
G1 X141.486 Y71.304 E28.88032
G1 X141.733 Y71.302 E28.88853
G1 X152.959 Y71.303 E29.26191
G1 X154.104 Y71.319 E29.3
G1 X156.74 Y71.319 E29.38767
G1 X157.486 Y71.304 E29.41249
G1 X157.733 Y71.302 E29.4207
G1 X162.937 Y71.303 E29.59379
G1 X163.635 Y71.313 E29.61701
G1 X164.537 Y71.366 E29.64706
G1 X165.43 Y71.498 E29.67708
G1 X166.308 Y71.709 E29.70712
G1 X167.164 Y71.997 E29.73716
G1 X167.991 Y72.359 E29.76718
G1 X168.783 Y72.794 E29.79724
G1 X169.534 Y73.296 E29.82728
G1 X170.237 Y73.863 E29.85732
G1 X170.887 Y74.49 E29.88736
G1 X171.479 Y75.172 E29.9174
G1 X172.009 Y75.903 E29.94743
G1 X172.471 Y76.679 E29.97746
G1 X172.864 Y77.492 E30.0075
G1 X173.182 Y78.337 E30.03753
G1 X173.425 Y79.207 E30.06757
G1 X173.59 Y80.095 E30.09761
G1 X173.685 Y81.225 E30.13533
G1 X173.694 Y81.545 E30.14598
G1 X173.698 Y81.832 E30.15552
G1 X173.697 Y96.958 E30.65862
G1 X173.681 Y98.103 E30.6967
G1 X173.681 Y100.739 E30.78438
G1 X173.696 Y101.485 E30.80919
G1 X173.698 Y101.732 E30.81741
G1 X173.697 Y114.959 E31.25734
G1 X173.681 Y116.105 E31.29546
G1 X173.681 Y118.74 E31.3831
G1 X173.696 Y119.486 E31.40792
G1 X173.698 Y119.733 E31.41613
G1 X173.697 Y132.959 E31.85603
G1 X173.681 Y134.104 E31.89412
G1 X173.681 Y136.74 E31.98179
G1 X173.696 Y137.486 E32.00661
G1 X173.698 Y137.733 E32.01482
G1 X173.697 Y152.888 E32.51888
G1 X173.688 Y153.615 E32.54306
G1 X173.637 Y154.517 E32.57311
G1 X173.506 Y155.411 E32.60316
G1 X173.297 Y156.289 E32.63318
G1 X173.011 Y157.146 E32.66323
G1 X172.65 Y157.974 E32.69327
G1 X172.218 Y158.766 E32.72328
G1 X171.717 Y159.518 E32.75333
G1 X171.151 Y160.222 E32.78338
G1 X170.526 Y160.873 E32.81339
G1 X169.845 Y161.467 E32.84345
G1 X169.114 Y161.998 E32.8735
G1 X168.34 Y162.462 E32.90352
G1 X167.527 Y162.856 E32.93356
G1 X166.683 Y163.176 E32.96359
G1 X165.813 Y163.421 E32.99365
G1 X164.926 Y163.587 E33.02366
G1 X163.775 Y163.685 E33.06208
G1 X163.454 Y163.694 E33.07276
G1 X163.168 Y163.698 E33.08228
G1 X158.042 Y163.697 E33.25277
G1 X156.897 Y163.681 E33.29085
G1 X154.261 Y163.681 E33.37853
G1 X153.515 Y163.696 E33.40335
G1 X153.268 Y163.698 E33.41156
G1 X142.042 Y163.697 E33.78494
G1 X140.897 Y163.681 E33.82303
G1 X138.261 Y163.681 E33.9107
G1 X137.515 Y163.696 E33.93552
G1 X137.268 Y163.698 E33.94373
G1 X128.042 Y163.697 E34.25059
G1 X126.897 Y163.681 E34.28868
G1 X124.261 Y163.681 E34.37635
G1 X123.515 Y163.696 E34.40117
G1 X123.268 Y163.698 E34.40938
G1 X112.041 Y163.697 E34.78279
G1 X110.896 Y163.681 E34.82088
G1 X108.26 Y163.681 E34.90855
G1 X107.514 Y163.696 E34.93337
G1 X107.267 Y163.698 E34.94159
G1 X98.041 Y163.697 E35.24845
G1 X96.896 Y163.681 E35.28653
G1 X94.26 Y163.681 E35.37421
G1 X93.514 Y163.696 E35.39902
G1 X93.267 Y163.698 E35.40724
G1 X82.041 Y163.697 E35.78062
G1 X80.896 Y163.681 E35.8187
G1 X78.26 Y163.681 E35.90638
G1 X77.514 Y163.696 E35.93119
G1 X77.267 Y163.698 E35.93941
G1 X72.077 Y163.697 E36.11203
G1 X71.379 Y163.688 E36.13525
G1 X70.478 Y163.637 E36.16526
G1 X69.584 Y163.505 E36.19532
G1 X68.706 Y163.296 E36.22534
G1 X67.849 Y163.009 E36.2554
G1 X67.022 Y162.648 E36.28541
G1 X66.229 Y162.215 E36.31546
G1 X65.478 Y161.714 E36.34549
G1 X64.774 Y161.148 E36.37553
G1 X64.123 Y160.522 E36.40557
G1 X63.53 Y159.841 E36.4356
G1 X63 Y159.11 E36.46564
G1 X62.536 Y158.335 E36.49568
G1 X62.142 Y157.522 E36.52573
G1 X61.822 Y156.678 E36.55575
G1 X61.578 Y155.808 E36.5858
G1 X61.412 Y154.92 E36.61585
G1 X61.315 Y153.765 E36.6544
G1 X61.306 Y153.432 E36.66548
G1 X61.302 Y153.156 E36.67466
G1 X61.303 Y138.042 E37.17735
G1 X61.319 Y136.863 E37.21657
G1 X61.319 Y134.261 E37.30311
G1 X61.304 Y133.515 E37.32793
G1 X61.302 Y133.268 E37.33615
