;FLAVOR:Marlin
;TIME:21936
;Filament used: 26.1773m
;Layer height: 0.28
;MINX:60.931
;MINY:66.745
;MINZ:0.28
;MAXX:165.816
;MAXY:179.559
;MAXZ:50.12
;Generated with Cura_SteamEngine 4.11.0
M140 S50
M105
M190 S50
M104 S200
M105
M109 S200
M82 ;absolute extrusion mode
; Ender 3 Custom Start G-code
G92 E0 ; Reset Extruder
G28 ; Home all axes
G1 Z2.0 F3000 ; Move Z Axis up little to prevent scratching of Heat Bed
G1 X0.1 Y20 Z0.3 F5000.0 ; Move to start position
G1 X0.1 Y200.0 Z0.3 F1500.0 E15 ; Draw the first line
G1 X0.4 Y200.0 Z0.3 F5000.0 ; Move to side a little
G1 X0.4 Y20 Z0.3 F1500.0 E30 ; Draw the second line
G92 E0 ; Reset Extruder
G1 Z2.0 F3000 ; Move Z Axis up little to prevent scratching of Heat Bed
G1 X5 Y20 Z0.3 F5000.0 ; Move over to prevent blob squish
G92 E0
G92 E0
G1 F2700 E-5
;LAYER_COUNT:179
;LAYER:0
M107
G0 F6000 X63.354 Y68.894 Z0.28
;TYPE:SKIRT
G1 F2700 E0
G1 F1200 X63.953 Y68.379 E0.03678
G1 X64.601 Y67.928 E0.07355
G1 X65.292 Y67.544 E0.11036
G1 X66.017 Y67.232 E0.14711
G1 X66.77 Y66.995 E0.18387
G1 X67.544 Y66.836 E0.22066
G1 X68.329 Y66.755 E0.25741
G1 X68.731 Y66.745 E0.27613
G1 X157.731 Y66.745 E4.42034
G1 X158.52 Y66.785 E4.45713
G1 X159.3 Y66.904 E4.49387
G1 X160.065 Y67.102 E4.53067
G1 X160.805 Y67.376 E4.56741
G1 X161.514 Y67.724 E4.60419
G1 X162.185 Y68.142 E4.641
G1 X162.809 Y68.625 E4.67774
G1 X163.382 Y69.168 E4.7145
G1 X163.897 Y69.767 E4.75128
G1 X164.348 Y70.415 E4.78805
G1 X164.732 Y71.106 E4.82486
G1 X165.044 Y71.831 E4.86161
G1 X165.281 Y72.584 E4.89837
G1 X165.44 Y73.358 E4.93516
G1 X165.521 Y74.143 E4.97191
G1 X165.531 Y74.545 E4.99063
G1 X165.531 Y112.545 E6.76007
G1 X165.491 Y113.334 E6.79686
G1 X165.372 Y114.114 E6.8336
G1 X165.174 Y114.879 E6.87039
G1 X164.9 Y115.619 E6.90714
G1 X164.552 Y116.328 E6.94391
G1 X164.134 Y116.999 E6.98072
G1 X163.651 Y117.623 E7.01747
G1 X163.108 Y118.196 E7.05423
G1 X162.509 Y118.711 E7.09101
G1 X161.861 Y119.162 E7.12777
G1 X161.17 Y119.546 E7.16458
G1 X160.445 Y119.858 E7.20133
G1 X159.692 Y120.095 E7.23809
G1 X158.918 Y120.254 E7.27489
G1 X158.133 Y120.335 E7.31163
G1 X157.731 Y120.345 E7.33036
G1 X68.731 Y120.345 E11.47457
G1 X67.942 Y120.305 E11.51136
G1 X67.162 Y120.186 E11.5481
G1 X66.397 Y119.988 E11.58489
G1 X65.657 Y119.714 E11.62164
G1 X64.948 Y119.366 E11.65841
G1 X64.277 Y118.948 E11.69522
G1 X63.653 Y118.465 E11.73197
G1 X63.08 Y117.922 E11.76873
G1 X62.565 Y117.323 E11.80551
G1 X62.114 Y116.675 E11.84227
G1 X61.73 Y115.984 E11.87908
G1 X61.418 Y115.259 E11.91584
G1 X61.181 Y114.506 E11.95259
G1 X61.022 Y113.732 E11.98939
G1 X60.941 Y112.947 E12.02613
G1 X60.931 Y112.545 E12.04486
G1 X60.931 Y74.545 E13.8143
G1 X60.971 Y73.756 E13.85108
G1 X61.09 Y72.976 E13.88782
G1 X61.288 Y72.211 E13.92462
G1 X61.562 Y71.471 E13.96136
G1 X61.91 Y70.762 E13.99814
G1 X62.328 Y70.091 E14.03495
G1 X62.811 Y69.467 E14.07169
G1 X63.354 Y68.894 E14.10845
G0 F6000 X63.747 Y69.075
G1 F1200 X64.342 Y68.587 E14.14429
G1 X64.984 Y68.164 E14.18008
G1 X65.667 Y67.809 E14.21593
G1 X66.382 Y67.528 E14.2517
G1 X67.124 Y67.322 E14.28756
G1 X67.882 Y67.194 E14.32335
G1 X68.731 Y67.145 E14.36295
G1 X157.731 Y67.145 E18.50716
G1 X158.499 Y67.185 E18.54297
G1 X159.259 Y67.304 E18.57879
G1 X160.002 Y67.502 E18.6146
G1 X160.721 Y67.776 E18.65043
G1 X161.407 Y68.123 E18.68622
G1 X162.054 Y68.539 E18.72204
G1 X162.654 Y69.02 E18.75785
G1 X163.201 Y69.561 E18.79367
G1 X163.689 Y70.156 E18.82951
G1 X164.112 Y70.798 E18.8653
G1 X164.467 Y71.481 E18.90115
G1 X164.748 Y72.196 E18.93692
G1 X164.954 Y72.938 E18.97278
G1 X165.082 Y73.696 E19.00857
G1 X165.131 Y74.545 E19.04817
G1 X165.131 Y112.545 E20.81761
G1 X165.091 Y113.313 E20.85342
G1 X164.972 Y114.073 E20.88924
G1 X164.774 Y114.816 E20.92505
G1 X164.5 Y115.535 E20.96087
G1 X164.153 Y116.221 E20.99667
G1 X163.737 Y116.868 E21.03249
G1 X163.256 Y117.468 E21.0683
G1 X162.715 Y118.015 E21.10412
G1 X162.12 Y118.503 E21.13995
G1 X161.478 Y118.926 E21.17575
G1 X160.795 Y119.281 E21.21159
G1 X160.08 Y119.562 E21.24737
G1 X159.338 Y119.768 E21.28322
G1 X158.58 Y119.896 E21.31902
G1 X157.731 Y119.945 E21.35862
G1 X68.731 Y119.945 E25.50283
G1 X67.963 Y119.905 E25.53864
G1 X67.203 Y119.786 E25.57446
G1 X66.46 Y119.588 E25.61027
G1 X65.741 Y119.314 E25.64609
G1 X65.055 Y118.967 E25.68189
G1 X64.408 Y118.551 E25.71771
G1 X63.808 Y118.07 E25.75352
G1 X63.261 Y117.529 E25.78934
G1 X62.773 Y116.934 E25.82517
G1 X62.35 Y116.292 E25.86097
G1 X61.995 Y115.609 E25.89681
G1 X61.714 Y114.894 E25.93259
G1 X61.508 Y114.152 E25.96844
G1 X61.38 Y113.394 E26.00424
G1 X61.331 Y112.545 E26.04384
G1 X61.331 Y74.545 E27.81328
G1 X61.371 Y73.777 E27.84909
G1 X61.49 Y73.017 E27.88491
G1 X61.688 Y72.274 E27.92071
G1 X61.962 Y71.555 E27.95654
G1 X62.309 Y70.869 E27.99234
G1 X62.725 Y70.222 E28.02815
G1 X63.206 Y69.622 E28.06396
G1 X63.747 Y69.075 E28.09979
G0 F6000 X64.139 Y69.261
G1 F1200 X64.729 Y68.802 E28.13459
G1 X65.365 Y68.407 E28.16945
G1 X66.039 Y68.083 E28.20428
G1 X66.744 Y67.833 E28.23911
G1 X67.472 Y67.659 E28.27396
G1 X68.214 Y67.564 E28.30879
G1 X68.731 Y67.545 E28.33288
G1 X157.731 Y67.545 E32.4771
G1 X158.478 Y67.585 E32.51193
G1 X159.216 Y67.704 E32.54674
G1 X159.938 Y67.902 E32.5816
G1 X160.634 Y68.175 E32.61641
G1 X161.297 Y68.522 E32.65126
G1 X161.92 Y68.937 E32.68611
G1 X162.494 Y69.416 E32.72092
G1 X163.015 Y69.953 E32.75576
G1 X163.474 Y70.543 E32.79057
G1 X163.869 Y71.179 E32.82543
G1 X164.193 Y71.853 E32.86026
G1 X164.443 Y72.558 E32.89509
G1 X164.617 Y73.286 E32.92994
G1 X164.712 Y74.028 E32.96477
G1 X164.731 Y74.545 E32.98886
G1 X164.731 Y112.545 E34.7583
G1 X164.691 Y113.292 E34.79313
G1 X164.572 Y114.03 E34.82794
G1 X164.374 Y114.752 E34.8628
G1 X164.101 Y115.448 E34.89762
G1 X163.754 Y116.111 E34.93246
G1 X163.339 Y116.734 E34.96732
G1 X162.86 Y117.308 E35.00213
G1 X162.323 Y117.829 E35.03697
G1 X161.733 Y118.288 E35.07178
G1 X161.097 Y118.683 E35.10664
G1 X160.423 Y119.007 E35.14146
G1 X159.718 Y119.257 E35.17629
G1 X158.99 Y119.431 E35.21114
G1 X158.248 Y119.526 E35.24598
G1 X157.731 Y119.545 E35.27007
G1 X68.731 Y119.545 E39.41428
G1 X67.984 Y119.505 E39.44911
G1 X67.246 Y119.386 E39.48392
G1 X66.524 Y119.188 E39.51878
G1 X65.828 Y118.915 E39.55359
G1 X65.165 Y118.568 E39.58844
G1 X64.542 Y118.153 E39.6233
G1 X63.968 Y117.674 E39.65811
G1 X63.447 Y117.137 E39.69295
G1 X62.988 Y116.547 E39.72775
G1 X62.593 Y115.911 E39.76262
G1 X62.269 Y115.237 E39.79744
G1 X62.019 Y114.532 E39.83227
G1 X61.845 Y113.804 E39.86712
G1 X61.75 Y113.062 E39.90195
G1 X61.731 Y112.545 E39.92604
G1 X61.731 Y74.545 E41.69548
G1 X61.771 Y73.798 E41.73032
G1 X61.89 Y73.06 E41.76513
G1 X62.088 Y72.338 E41.79999
G1 X62.361 Y71.642 E41.8348
G1 X62.708 Y70.979 E41.86964
G1 X63.123 Y70.356 E41.9045
G1 X63.602 Y69.782 E41.93931
G1 X64.139 Y69.261 E41.97415
G0 F6000 X63.996 Y69.947
G1 F1200 X64.53 Y69.454 E42.00799
G1 X65.115 Y69.024 E42.0418
G1 X65.744 Y68.66 E42.07564
G1 X66.409 Y68.367 E42.10948
G1 X67.102 Y68.149 E42.14331
G1 X67.814 Y68.009 E42.17709
G1 X68.731 Y67.945 E42.2199
G1 X157.731 Y67.945 E46.36411
G1 X158.456 Y67.985 E46.39792
G1 X159.173 Y68.104 E46.43176
G1 X159.872 Y68.302 E46.46559
G1 X160.545 Y68.575 E46.49941
G1 X161.184 Y68.92 E46.53322
G1 X161.781 Y69.334 E46.56705
G1 X162.329 Y69.81 E46.60085
G1 X162.822 Y70.344 E46.63469
G1 X163.252 Y70.929 E46.6685
G1 X163.616 Y71.558 E46.70234
G1 X163.909 Y72.223 E46.73618
G1 X164.127 Y72.916 E46.77001
G1 X164.267 Y73.628 E46.8038
G1 X164.331 Y74.545 E46.8466
G1 X164.331 Y112.545 E48.61604
G1 X164.291 Y113.27 E48.64985
G1 X164.172 Y113.987 E48.68369
G1 X163.974 Y114.686 E48.71752
G1 X163.701 Y115.359 E48.75134
G1 X163.356 Y115.998 E48.78515
G1 X162.942 Y116.595 E48.81898
G1 X162.466 Y117.143 E48.85278
G1 X161.932 Y117.636 E48.88662
G1 X161.347 Y118.066 E48.92043
G1 X160.718 Y118.43 E48.95427
G1 X160.053 Y118.723 E48.98811
G1 X159.36 Y118.941 E49.02194
G1 X158.648 Y119.081 E49.05572
G1 X157.731 Y119.145 E49.09853
G1 X68.731 Y119.145 E53.24274
G1 X68.006 Y119.105 E53.27655
G1 X67.289 Y118.986 E53.31039
G1 X66.59 Y118.788 E53.34422
G1 X65.917 Y118.515 E53.37804
G1 X65.278 Y118.17 E53.41185
G1 X64.681 Y117.756 E53.44568
G1 X64.133 Y117.28 E53.47948
G1 X63.64 Y116.746 E53.51332
G1 X63.21 Y116.161 E53.54713
G1 X62.846 Y115.532 E53.58097
G1 X62.553 Y114.867 E53.61481
G1 X62.335 Y114.174 E53.64864
G1 X62.195 Y113.462 E53.68243
G1 X62.131 Y112.545 E53.72523
G1 X62.131 Y74.545 E55.49467
G1 X62.171 Y73.82 E55.52848
G1 X62.29 Y73.103 E55.56232
G1 X62.488 Y72.404 E55.59615
G1 X62.761 Y71.731 E55.62997
G1 X63.106 Y71.092 E55.66378
G1 X63.52 Y70.495 E55.69761
G1 X63.996 Y69.947 E55.73141
G0 F6000 X64.39 Y70.118
G1 F1200 X64.92 Y69.654 E55.76421
G1 X65.499 Y69.254 E55.79698
G1 X66.12 Y68.922 E55.82977
G1 X66.774 Y68.662 E55.86254
G1 X67.454 Y68.478 E55.89534
G1 X68.15 Y68.372 E55.92813
G1 X68.731 Y68.345 E55.95521
G1 X157.731 Y68.345 E60.09942
G1 X158.434 Y68.385 E60.13221
G1 X159.128 Y68.504 E60.165
G1 X159.803 Y68.702 E60.19775
G1 X160.452 Y68.974 E60.23052
G1 X161.066 Y69.319 E60.26331
G1 X161.637 Y69.73 E60.29607
G1 X162.158 Y70.204 E60.32887
G1 X162.622 Y70.734 E60.36167
G1 X163.022 Y71.313 E60.39444
G1 X163.354 Y71.934 E60.42723
G1 X163.614 Y72.588 E60.46
G1 X163.798 Y73.268 E60.4928
G1 X163.904 Y73.964 E60.52558
G1 X163.931 Y74.545 E60.55267
G1 X163.931 Y112.545 E62.32211
G1 X163.891 Y113.248 E62.35489
G1 X163.772 Y113.942 E62.38768
G1 X163.574 Y114.617 E62.42044
G1 X163.302 Y115.266 E62.4532
G1 X162.957 Y115.88 E62.486
G1 X162.546 Y116.451 E62.51876
G1 X162.072 Y116.972 E62.55156
G1 X161.542 Y117.436 E62.58436
G1 X160.963 Y117.836 E62.61712
G1 X160.342 Y118.168 E62.64991
G1 X159.688 Y118.428 E62.68269
G1 X159.008 Y118.612 E62.71549
G1 X158.312 Y118.718 E62.74827
G1 X157.731 Y118.745 E62.77535
G1 X68.731 Y118.745 E66.91957
G1 X68.028 Y118.705 E66.95235
G1 X67.334 Y118.586 E66.98514
G1 X66.659 Y118.388 E67.0179
G1 X66.01 Y118.116 E67.05066
G1 X65.396 Y117.771 E67.08346
G1 X64.825 Y117.36 E67.11622
G1 X64.304 Y116.886 E67.14901
G1 X63.84 Y116.356 E67.18181
G1 X63.44 Y115.777 E67.21458
G1 X63.108 Y115.156 E67.24737
G1 X62.848 Y114.502 E67.28014
G1 X62.664 Y113.822 E67.31295
G1 X62.558 Y113.126 E67.34573
G1 X62.531 Y112.545 E67.37281
G1 X62.531 Y74.545 E69.14225
G1 X62.571 Y73.842 E69.17504
G1 X62.69 Y73.148 E69.20783
G1 X62.888 Y72.473 E69.24058
G1 X63.16 Y71.824 E69.27335
G1 X63.505 Y71.21 E69.30614
G1 X63.916 Y70.639 E69.3389
G1 X64.39 Y70.118 E69.3717
G0 F6000 X64.784 Y70.296
G1 F1200 X65.309 Y69.862 E69.40342
G1 X65.881 Y69.493 E69.43511
G1 X66.493 Y69.194 E69.46683
G1 X67.135 Y68.969 E69.49851
G1 X67.8 Y68.82 E69.53024
G1 X68.731 Y68.745 E69.57373
G1 X157.731 Y68.745 E73.71794
G1 X158.411 Y68.785 E73.74966
G1 X159.081 Y68.904 E73.78135
G1 X159.733 Y69.101 E73.81306
G1 X160.357 Y69.373 E73.84476
G1 X160.945 Y69.717 E73.87648
G1 X161.489 Y70.127 E73.9082
G1 X161.98 Y70.598 E73.93988
G1 X162.414 Y71.123 E73.9716
G1 X162.783 Y71.695 E74.0033
G1 X163.082 Y72.307 E74.03501
G1 X163.307 Y72.949 E74.06669
G1 X163.456 Y73.614 E74.09842
G1 X163.531 Y74.545 E74.14192
G1 X163.531 Y112.545 E75.91135
G1 X163.491 Y113.225 E75.94307
G1 X163.372 Y113.895 E75.97476
G1 X163.175 Y114.547 E76.00647
G1 X162.903 Y115.171 E76.03817
G1 X162.559 Y115.759 E76.06989
G1 X162.149 Y116.303 E76.10161
G1 X161.678 Y116.794 E76.13329
G1 X161.153 Y117.228 E76.16501
G1 X160.581 Y117.597 E76.19671
G1 X159.969 Y117.896 E76.22842
G1 X159.327 Y118.121 E76.2601
G1 X158.662 Y118.27 E76.29183
G1 X157.731 Y118.345 E76.33532
G1 X68.731 Y118.345 E80.47954
G1 X68.051 Y118.305 E80.51126
G1 X67.381 Y118.186 E80.54294
G1 X66.729 Y117.989 E80.57466
G1 X66.105 Y117.717 E80.60635
G1 X65.517 Y117.373 E80.63808
G1 X64.973 Y116.963 E80.6698
G1 X64.482 Y116.492 E80.70148
G1 X64.048 Y115.967 E80.73319
G1 X63.679 Y115.395 E80.76489
G1 X63.38 Y114.783 E80.79661
G1 X63.155 Y114.141 E80.82828
G1 X63.006 Y113.476 E80.86002
G1 X62.931 Y112.545 E80.90351
G1 X62.931 Y74.545 E82.67295
G1 X62.971 Y73.865 E82.70467
G1 X63.09 Y73.195 E82.73635
G1 X63.287 Y72.543 E82.76807
G1 X63.559 Y71.919 E82.79976
G1 X63.903 Y71.331 E82.83149
G1 X64.313 Y70.787 E82.8632
G1 X64.784 Y70.296 E82.89489
G0 F6000 X65.176 Y70.48
G1 F1200 X65.696 Y70.079 E82.92546
G1 X66.26 Y69.743 E82.95603
G1 X66.862 Y69.479 E82.98664
G1 X67.491 Y69.289 E83.01724
G1 X68.138 Y69.178 E83.0478
G1 X68.731 Y69.145 E83.07546
G1 X157.731 Y69.145 E87.21967
G1 X158.387 Y69.185 E87.25028
G1 X159.033 Y69.304 E87.28086
G1 X159.66 Y69.501 E87.31146
G1 X160.258 Y69.773 E87.34206
G1 X160.819 Y70.115 E87.37265
G1 X161.334 Y70.523 E87.40324
G1 X161.796 Y70.99 E87.43383
G1 X162.197 Y71.51 E87.46441
G1 X162.533 Y72.074 E87.49498
G1 X162.797 Y72.676 E87.52559
G1 X162.987 Y73.305 E87.55618
G1 X163.098 Y73.952 E87.58675
G1 X163.131 Y74.545 E87.61441
G1 X163.131 Y112.545 E89.38384
G1 X163.091 Y113.201 E89.41445
G1 X162.972 Y113.847 E89.44503
G1 X162.775 Y114.474 E89.47564
G1 X162.503 Y115.072 E89.50623
G1 X162.161 Y115.633 E89.53682
G1 X161.753 Y116.148 E89.56742
G1 X161.286 Y116.61 E89.598
G1 X160.766 Y117.011 E89.62858
G1 X160.202 Y117.347 E89.65915
G1 X159.6 Y117.611 E89.68976
G1 X158.971 Y117.801 E89.72035
G1 X158.324 Y117.912 E89.75092
G1 X157.731 Y117.945 E89.77858
G1 X68.731 Y117.945 E93.92279
G1 X68.075 Y117.905 E93.95339
G1 X67.429 Y117.786 E93.98398
G1 X66.802 Y117.589 E94.01458
G1 X66.204 Y117.317 E94.04517
G1 X65.643 Y116.975 E94.07577
G1 X65.128 Y116.567 E94.10636
G1 X64.666 Y116.1 E94.13695
G1 X64.265 Y115.58 E94.16753
G1 X63.929 Y115.016 E94.1981
G1 X63.665 Y114.414 E94.2287
G1 X63.475 Y113.785 E94.2593
G1 X63.364 Y113.138 E94.28987
G1 X63.331 Y112.545 E94.31752
G1 X63.331 Y74.545 E96.08696
G1 X63.371 Y73.889 E96.11756
G1 X63.49 Y73.243 E96.14815
G1 X63.687 Y72.616 E96.17875
G1 X63.959 Y72.018 E96.20934
G1 X64.301 Y71.457 E96.23994
G1 X64.709 Y70.942 E96.27053
G1 X65.176 Y70.48 E96.30112
G0 F6000 X65.104 Y71.104
G1 F1200 X65.567 Y70.674 E96.33054
G1 X66.081 Y70.305 E96.36001
G1 X66.637 Y70.005 E96.38942
G1 X67.226 Y69.777 E96.41883
G1 X67.84 Y69.625 E96.44829
G1 X68.731 Y69.545 E96.48994
G1 X157.731 Y69.545 E100.63416
G1 X158.362 Y69.585 E100.6636
G1 X158.983 Y69.704 E100.69304
G1 X159.583 Y69.901 E100.72245
G1 X160.155 Y70.172 E100.75192
G1 X160.687 Y70.512 E100.78132
G1 X161.172 Y70.918 E100.81077
G1 X161.602 Y71.381 E100.84019
G1 X161.971 Y71.895 E100.86966
G1 X162.271 Y72.451 E100.89907
G1 X162.499 Y73.04 E100.92848
G1 X162.651 Y73.654 E100.95794
G1 X162.731 Y74.545 E100.99959
G1 X162.731 Y112.545 E102.76903
G1 X162.691 Y113.176 E102.79847
G1 X162.572 Y113.797 E102.82791
G1 X162.375 Y114.397 E102.85732
G1 X162.104 Y114.969 E102.88679
G1 X161.764 Y115.501 E102.91619
G1 X161.358 Y115.986 E102.94564
G1 X160.895 Y116.416 E102.97507
G1 X160.381 Y116.785 E103.00453
G1 X159.825 Y117.085 E103.03395
G1 X159.236 Y117.313 E103.06336
G1 X158.622 Y117.465 E103.09281
G1 X157.731 Y117.545 E103.13447
G1 X68.731 Y117.545 E107.27868
G1 X68.1 Y117.505 E107.30812
G1 X67.479 Y117.386 E107.33756
G1 X66.879 Y117.189 E107.36697
G1 X66.307 Y116.918 E107.39644
G1 X65.775 Y116.578 E107.42584
G1 X65.29 Y116.172 E107.45529
G1 X64.86 Y115.709 E107.48472
G1 X64.491 Y115.195 E107.51418
G1 X64.191 Y114.639 E107.5436
G1 X63.963 Y114.05 E107.57301
G1 X63.811 Y113.436 E107.60246
G1 X63.731 Y112.545 E107.64411
G1 X63.731 Y74.545 E109.41355
G1 X63.771 Y73.914 E109.44299
G1 X63.89 Y73.293 E109.47244
G1 X64.087 Y72.693 E109.50184
G1 X64.358 Y72.121 E109.53132
G1 X64.698 Y71.589 E109.56072
G1 X65.104 Y71.104 E109.59017
G0 F6000 X65.498 Y71.273
G1 F1200 X65.956 Y70.876 E109.61839
G1 X66.463 Y70.543 E109.64664
G1 X67.009 Y70.279 E109.67488
G1 X67.585 Y70.09 E109.7031
G1 X68.181 Y69.978 E109.73134
G1 X68.731 Y69.945 E109.757
G1 X157.731 Y69.945 E113.90121
G1 X158.336 Y69.985 E113.92944
G1 X158.93 Y70.104 E113.95765
G1 X159.504 Y70.3 E113.98589
G1 X160.047 Y70.571 E114.01415
G1 X160.55 Y70.91 E114.0424
G1 X161.003 Y71.312 E114.0706
G1 X161.4 Y71.77 E114.09882
G1 X161.733 Y72.277 E114.12707
G1 X161.997 Y72.823 E114.15531
G1 X162.186 Y73.399 E114.18354
G1 X162.298 Y73.995 E114.21177
G1 X162.331 Y74.545 E114.23743
