;FLAVOR:Marlin
;TIME:21821
;Filament used: 26.1097m
;Layer height: 0.28
;MINX:65.2
;MINY:49.7
;MINZ:0.28
;MAXX:169.8
;MAXY:185.3
;MAXZ:38.08
;Generated with Cura_SteamEngine 4.11.0
M140 S50
M105
M190 S50
M104 S200
M105
M109 S200
M82 ;absolute extrusion mode
; Ender 3 Custom Start G-code
G92 E0 ; Reset Extruder
G28 ; Home all axes
G1 Z2.0 F3000 ; Move Z Axis up little to prevent scratching of Heat Bed
G1 X0.1 Y20 Z0.3 F5000.0 ; Move to start position
G1 X0.1 Y200.0 Z0.3 F1500.0 E15 ; Draw the first line
G1 X0.4 Y200.0 Z0.3 F5000.0 ; Move to side a little
G1 X0.4 Y20 Z0.3 F1500.0 E30 ; Draw the second line
G92 E0 ; Reset Extruder
G1 Z2.0 F3000 ; Move Z Axis up little to prevent scratching of Heat Bed
G1 X5 Y20 Z0.3 F5000.0 ; Move over to prevent blob squish
G92 E0
G92 E0
G1 F2700 E-5
;LAYER_COUNT:136
;LAYER:0
M107
G0 F6000 X67.08 Y52.422 Z0.28
;TYPE:SKIRT
G1 F2700 E0
G1 F1200 X67.623 Y51.849 E0.03676
G1 X68.222 Y51.334 E0.07354
G1 X68.87 Y50.883 E0.1103
G1 X69.561 Y50.499 E0.14711
G1 X70.286 Y50.187 E0.18387
G1 X71.039 Y49.95 E0.22063
G1 X71.813 Y49.791 E0.25742
G1 X72.598 Y49.71 E0.29417
G1 X73 Y49.7 E0.31289
G1 X162 Y49.7 E4.4571
G1 X162.789 Y49.74 E4.49389
G1 X163.569 Y49.859 E4.53063
G1 X164.334 Y50.057 E4.56743
G1 X165.074 Y50.331 E4.60417
G1 X165.783 Y50.679 E4.64095
G1 X166.454 Y51.097 E4.67776
G1 X167.078 Y51.58 E4.7145
G1 X167.651 Y52.123 E4.75126
G1 X168.166 Y52.722 E4.78804
G1 X168.617 Y53.37 E4.8248
G1 X169.001 Y54.061 E4.86161
G1 X169.313 Y54.786 E4.89837
G1 X169.55 Y55.539 E4.93513
G1 X169.709 Y56.313 E4.97192
G1 X169.79 Y57.098 E5.00867
G1 X169.8 Y57.5 E5.02739
G1 X169.8 Y62.5 E5.26021
G1 X169.76 Y63.289 E5.297
G1 X169.641 Y64.069 E5.33374
G1 X169.443 Y64.834 E5.37053
G1 X169.169 Y65.574 E5.40728
G1 X168.821 Y66.283 E5.44405
G1 X168.403 Y66.954 E5.48086
G1 X167.92 Y67.578 E5.51761
G1 X167.377 Y68.151 E5.55437
G1 X166.858 Y68.598 E5.58626
G1 X157.086 Y109.32 E7.53628
G1 X156.863 Y110.078 E7.57307
G1 X156.564 Y110.809 E7.60985
G1 X156.194 Y111.506 E7.64659
G1 X155.754 Y112.162 E7.68337
G1 X155.251 Y112.771 E7.72015
G1 X154.689 Y113.325 E7.7569
G1 X154.073 Y113.82 E7.7937
G1 X153.411 Y114.249 E7.83043
G1 X152.708 Y114.61 E7.86723
G1 X151.973 Y114.898 E7.90398
G1 X151.212 Y115.11 E7.94077
G1 X150.434 Y115.244 E7.97753
G1 X149.501 Y115.3 E8.02105
G1 X133.5 Y115.3 E8.76613
G1 X132.711 Y115.26 E8.80291
G1 X131.931 Y115.141 E8.83965
G1 X131.166 Y114.943 E8.87645
G1 X130.426 Y114.669 E8.91319
G1 X129.717 Y114.321 E8.94997
G1 X129.046 Y113.903 E8.98678
G1 X128.422 Y113.42 E9.02352
G1 X127.849 Y112.877 E9.06028
G1 X127.334 Y112.278 E9.09706
G1 X126.883 Y111.63 E9.13383
G1 X126.499 Y110.939 E9.17064
G1 X126.187 Y110.214 E9.20739
G1 X125.95 Y109.461 E9.24415
G1 X125.791 Y108.687 E9.28094
G1 X125.71 Y107.902 E9.31769
G1 X125.7 Y107.5 E9.33641
G1 X125.7 Y70.3 E11.0686
G1 X109.3 Y70.3 E11.83225
G1 X109.3 Y107.5 E13.56444
G1 X109.26 Y108.289 E13.60123
G1 X109.141 Y109.069 E13.63797
G1 X108.943 Y109.834 E13.67476
G1 X108.669 Y110.574 E13.71151
G1 X108.321 Y111.283 E13.74828
G1 X107.903 Y111.954 E13.78509
G1 X107.42 Y112.578 E13.82184
G1 X106.877 Y113.151 E13.8586
G1 X106.278 Y113.666 E13.89538
G1 X105.63 Y114.117 E13.93214
G1 X104.939 Y114.501 E13.96895
G1 X104.214 Y114.813 E14.0057
G1 X103.461 Y115.05 E14.04246
G1 X102.687 Y115.209 E14.07926
G1 X101.902 Y115.29 E14.116
G1 X101.5 Y115.3 E14.13473
G1 X85.499 Y115.3 E14.8798
G1 X84.71 Y115.26 E14.91659
G1 X83.93 Y115.141 E14.95333
G1 X83.165 Y114.943 E14.99012
G1 X82.425 Y114.669 E15.02687
G1 X81.716 Y114.321 E15.06364
G1 X81.045 Y113.903 E15.10046
G1 X80.421 Y113.42 E15.1372
G1 X79.848 Y112.877 E15.17396
G1 X79.333 Y112.278 E15.21074
G1 X78.882 Y111.63 E15.2475
G1 X78.498 Y110.939 E15.28431
G1 X78.186 Y110.214 E15.32107
G1 X77.914 Y109.32 E15.36458
G1 X68.14 Y68.589 E17.31503
G1 X67.922 Y68.42 E17.32787
G1 X67.349 Y67.877 E17.36463
G1 X66.834 Y67.278 E17.40141
G1 X66.383 Y66.63 E17.43817
G1 X65.999 Y65.939 E17.47498
G1 X65.687 Y65.214 E17.51174
G1 X65.45 Y64.461 E17.5485
G1 X65.291 Y63.687 E17.58529
G1 X65.21 Y62.902 E17.62204
G1 X65.2 Y62.5 E17.64076
G1 X65.2 Y57.5 E17.87358
G1 X65.24 Y56.711 E17.91037
G1 X65.359 Y55.931 E17.94711
G1 X65.557 Y55.166 E17.9839
G1 X65.831 Y54.426 E18.02065
G1 X66.179 Y53.717 E18.05742
G1 X66.597 Y53.046 E18.09423
G1 X67.08 Y52.422 E18.13098
G0 F6000 X67.475 Y52.577
G1 F1200 X68.016 Y52.03 E18.1668
G1 X68.611 Y51.542 E18.20263
G1 X69.253 Y51.119 E18.23843
G1 X69.936 Y50.764 E18.27428
G1 X70.651 Y50.483 E18.31005
G1 X71.393 Y50.277 E18.34591
G1 X72.151 Y50.149 E18.3817
G1 X73 Y50.1 E18.4213
G1 X162 Y50.1 E22.56551
G1 X162.768 Y50.14 E22.60132
G1 X163.528 Y50.259 E22.63714
G1 X164.271 Y50.457 E22.67295
G1 X164.99 Y50.731 E22.70878
G1 X165.676 Y51.078 E22.74457
G1 X166.323 Y51.494 E22.78039
G1 X166.923 Y51.975 E22.8162
G1 X167.47 Y52.516 E22.85202
G1 X167.958 Y53.111 E22.88785
G1 X168.381 Y53.753 E22.92365
G1 X168.736 Y54.436 E22.9595
G1 X169.017 Y55.151 E22.99527
G1 X169.223 Y55.893 E23.03113
G1 X169.351 Y56.651 E23.06692
G1 X169.4 Y57.5 E23.10652
G1 X169.4 Y62.5 E23.33934
G1 X169.36 Y63.268 E23.37515
G1 X169.241 Y64.028 E23.41097
G1 X169.043 Y64.771 E23.44678
G1 X168.769 Y65.49 E23.4826
G1 X168.422 Y66.176 E23.5184
G1 X168.006 Y66.823 E23.55422
G1 X167.525 Y67.423 E23.59003
G1 X166.984 Y67.97 E23.62585
G1 X166.502 Y68.365 E23.65487
G1 X156.697 Y109.227 E25.61158
G1 X156.479 Y109.964 E25.64737
G1 X156.185 Y110.675 E25.6832
G1 X155.819 Y111.352 E25.71903
G1 X155.386 Y111.987 E25.75482
G1 X154.888 Y112.573 E25.79063
G1 X154.332 Y113.105 E25.82646
G1 X153.724 Y113.576 E25.86228
G1 X153.071 Y113.982 E25.89808
G1 X152.379 Y114.318 E25.9339
G1 X151.655 Y114.579 E25.96974
G1 X150.909 Y114.765 E26.00554
G1 X150.147 Y114.872 E26.04137
G1 X149.501 Y114.9 E26.07147
G1 X133.5 Y114.9 E26.81655
G1 X132.732 Y114.86 E26.85236
G1 X131.972 Y114.741 E26.88818
G1 X131.229 Y114.543 E26.92398
G1 X130.51 Y114.269 E26.95981
G1 X129.824 Y113.922 E26.99561
G1 X129.177 Y113.506 E27.03143
G1 X128.577 Y113.025 E27.06723
G1 X128.03 Y112.484 E27.10306
G1 X127.542 Y111.889 E27.13889
G1 X127.119 Y111.247 E27.17469
G1 X126.764 Y110.564 E27.21053
G1 X126.483 Y109.849 E27.2463
G1 X126.277 Y109.107 E27.28216
G1 X126.149 Y108.349 E27.31796
G1 X126.1 Y107.5 E27.35756
G1 X126.1 Y69.9 E29.10837
G1 X108.9 Y69.9 E29.90927
G1 X108.9 Y107.5 E31.66009
G1 X108.86 Y108.268 E31.6959
G1 X108.741 Y109.028 E31.73172
G1 X108.543 Y109.771 E31.76752
G1 X108.269 Y110.49 E31.80335
G1 X107.922 Y111.176 E31.83915
G1 X107.506 Y111.823 E31.87496
G1 X107.025 Y112.423 E31.91077
G1 X106.484 Y112.97 E31.9466
G1 X105.889 Y113.458 E31.98243
G1 X105.247 Y113.881 E32.01823
G1 X104.564 Y114.236 E32.05407
G1 X103.849 Y114.517 E32.08984
G1 X103.107 Y114.723 E32.1257
G1 X102.349 Y114.851 E32.16149
G1 X101.5 Y114.9 E32.20109
G1 X85.499 Y114.9 E32.94617
G1 X84.731 Y114.86 E32.98198
G1 X83.971 Y114.741 E33.0178
G1 X83.228 Y114.543 E33.0536
G1 X82.509 Y114.269 E33.08943
G1 X81.823 Y113.922 E33.12523
G1 X81.176 Y113.506 E33.16104
G1 X80.576 Y113.025 E33.19685
G1 X80.029 Y112.484 E33.23268
G1 X79.541 Y111.889 E33.26851
G1 X79.118 Y111.247 E33.30431
G1 X78.763 Y110.564 E33.34015
G1 X78.482 Y109.849 E33.37592
G1 X78.303 Y109.227 E33.40606
G1 X68.497 Y68.362 E35.36292
G1 X68.077 Y68.025 E35.388
G1 X67.53 Y67.484 E35.42382
G1 X67.042 Y66.889 E35.45965
G1 X66.619 Y66.247 E35.49545
G1 X66.264 Y65.564 E35.5313
G1 X65.983 Y64.849 E35.56707
G1 X65.777 Y64.107 E35.60293
G1 X65.649 Y63.349 E35.63872
G1 X65.6 Y62.5 E35.67832
G1 X65.6 Y57.5 E35.91114
G1 X65.64 Y56.732 E35.94695
G1 X65.759 Y55.972 E35.98277
G1 X65.957 Y55.229 E36.01858
G1 X66.231 Y54.51 E36.0544
G1 X66.578 Y53.824 E36.0902
G1 X66.994 Y53.177 E36.12602
G1 X67.475 Y52.577 E36.16183
G0 F6000 X67.871 Y52.737
G1 F1200 X68.408 Y52.216 E36.19667
G1 X68.998 Y51.757 E36.23147
G1 X69.634 Y51.362 E36.26634
G1 X70.308 Y51.038 E36.30116
G1 X71.013 Y50.788 E36.33599
G1 X71.741 Y50.614 E36.37084
G1 X72.483 Y50.519 E36.40567
G1 X73 Y50.5 E36.42976
G1 X162 Y50.5 E40.57398
G1 X162.747 Y50.54 E40.60881
G1 X163.485 Y50.659 E40.64362
G1 X164.207 Y50.857 E40.67848
G1 X164.903 Y51.13 E40.71329
G1 X165.566 Y51.477 E40.74814
G1 X166.189 Y51.892 E40.78299
G1 X166.763 Y52.371 E40.8178
G1 X167.284 Y52.908 E40.85264
G1 X167.743 Y53.498 E40.88745
G1 X168.138 Y54.134 E40.92231
G1 X168.462 Y54.808 E40.95714
G1 X168.712 Y55.513 E40.99197
G1 X168.886 Y56.241 E41.02682
G1 X168.981 Y56.983 E41.06165
G1 X169 Y57.5 E41.08574
G1 X169 Y62.5 E41.31856
G1 X168.96 Y63.247 E41.3534
G1 X168.841 Y63.985 E41.38821
G1 X168.643 Y64.707 E41.42307
G1 X168.37 Y65.403 E41.45788
G1 X168.023 Y66.066 E41.49272
G1 X167.608 Y66.689 E41.52758
G1 X167.129 Y67.263 E41.56239
G1 X166.592 Y67.784 E41.59723
G1 X166.147 Y68.13 E41.62348
G1 X156.308 Y109.133 E43.58695
G1 X156.095 Y109.85 E43.62178
G1 X155.806 Y110.541 E43.65665
G1 X155.446 Y111.196 E43.69146
G1 X155.017 Y111.809 E43.7263
G1 X154.526 Y112.373 E43.76112
G1 X153.977 Y112.882 E43.79598
G1 X153.377 Y113.329 E43.83082
G1 X152.733 Y113.709 E43.86563
G1 X152.052 Y114.019 E43.90048
G1 X151.342 Y114.254 E43.9353
G1 X150.611 Y114.411 E43.97011
G1 X149.501 Y114.5 E44.02197
G1 X133.5 Y114.5 E44.76704
G1 X132.753 Y114.46 E44.80187
G1 X132.015 Y114.341 E44.83668
G1 X131.293 Y114.143 E44.87154
G1 X130.597 Y113.87 E44.90635
G1 X129.934 Y113.523 E44.9412
G1 X129.311 Y113.108 E44.97606
G1 X128.737 Y112.629 E45.01087
G1 X128.216 Y112.092 E45.04571
G1 X127.757 Y111.502 E45.08051
G1 X127.362 Y110.866 E45.11538
G1 X127.038 Y110.192 E45.1502
G1 X126.788 Y109.487 E45.18503
G1 X126.614 Y108.759 E45.21988
G1 X126.519 Y108.017 E45.25472
G1 X126.5 Y107.5 E45.27881
G1 X126.5 Y69.5 E47.04824
G1 X108.5 Y69.5 E47.8864
G1 X108.5 Y107.5 E49.65584
G1 X108.46 Y108.247 E49.69067
G1 X108.341 Y108.985 E49.72548
G1 X108.143 Y109.707 E49.76034
G1 X107.87 Y110.403 E49.79515
G1 X107.523 Y111.066 E49.83
G1 X107.108 Y111.689 E49.86486
G1 X106.629 Y112.263 E49.89967
G1 X106.092 Y112.784 E49.93451
G1 X105.502 Y113.243 E49.96931
G1 X104.866 Y113.638 E50.00418
G1 X104.192 Y113.962 E50.039
G1 X103.487 Y114.212 E50.07383
G1 X102.759 Y114.386 E50.10868
G1 X102.017 Y114.481 E50.14351
G1 X101.5 Y114.5 E50.1676
G1 X85.499 Y114.5 E50.91268
G1 X84.752 Y114.46 E50.94751
G1 X84.014 Y114.341 E50.98232
G1 X83.292 Y114.143 E51.01718
G1 X82.596 Y113.87 E51.05199
G1 X81.933 Y113.523 E51.08684
G1 X81.31 Y113.108 E51.12169
G1 X80.736 Y112.629 E51.15651
G1 X80.215 Y112.092 E51.19135
G1 X79.756 Y111.502 E51.22615
G1 X79.361 Y110.866 E51.26101
G1 X79.037 Y110.192 E51.29584
G1 X78.692 Y109.133 E51.3477
G1 X68.855 Y68.137 E53.31083
G1 X68.811 Y68.108 E53.31328
G1 X68.237 Y67.629 E53.3481
G1 X67.716 Y67.092 E53.38294
G1 X67.257 Y66.502 E53.41774
G1 X66.862 Y65.866 E53.4526
G1 X66.538 Y65.192 E53.48743
G1 X66.288 Y64.487 E53.52226
G1 X66.114 Y63.759 E53.55711
G1 X66.019 Y63.017 E53.59194
G1 X66 Y62.5 E53.61603
G1 X66 Y57.5 E53.84885
G1 X66.04 Y56.753 E53.88369
G1 X66.159 Y56.015 E53.9185
G1 X66.357 Y55.293 E53.95336
G1 X66.63 Y54.597 E53.98817
G1 X66.977 Y53.934 E54.02301
G1 X67.392 Y53.311 E54.05787
G1 X67.871 Y52.737 E54.09268
G0 F6000 X67.789 Y53.45
G1 F1200 X68.265 Y52.902 E54.12648
G1 X68.799 Y52.409 E54.16032
G1 X69.384 Y51.979 E54.19413
G1 X70.013 Y51.615 E54.22797
G1 X70.678 Y51.322 E54.26181
G1 X71.371 Y51.104 E54.29564
G1 X72.083 Y50.964 E54.32942
G1 X73 Y50.9 E54.37223
G1 X162 Y50.9 E58.51644
G1 X162.725 Y50.94 E58.55025
G1 X163.442 Y51.059 E58.58409
G1 X164.141 Y51.257 E58.61792
G1 X164.814 Y51.53 E58.65174
G1 X165.453 Y51.875 E58.68555
G1 X166.05 Y52.289 E58.71938
G1 X166.598 Y52.765 E58.75318
G1 X167.091 Y53.299 E58.78702
G1 X167.521 Y53.884 E58.82083
G1 X167.885 Y54.513 E58.85467
G1 X168.178 Y55.178 E58.88851
G1 X168.396 Y55.871 E58.92234
G1 X168.536 Y56.583 E58.95613
G1 X168.6 Y57.5 E58.99893
G1 X168.6 Y62.5 E59.23175
G1 X168.56 Y63.225 E59.26556
G1 X168.441 Y63.942 E59.2994
G1 X168.243 Y64.641 E59.33323
G1 X167.97 Y65.314 E59.36705
G1 X167.625 Y65.953 E59.40086
G1 X167.211 Y66.55 E59.43469
G1 X166.735 Y67.098 E59.46849
G1 X166.201 Y67.591 E59.50233
G1 X165.793 Y67.891 E59.52592
G1 X155.919 Y109.04 E61.49638
G1 X155.711 Y109.736 E61.5302
G1 X155.427 Y110.405 E61.56404
G1 X155.072 Y111.038 E61.59784
G1 X154.65 Y111.629 E61.63165
G1 X154.165 Y112.17 E61.66548
G1 X153.623 Y112.654 E61.69932
G1 X153.032 Y113.076 E61.73314
G1 X152.398 Y113.43 E61.76695
G1 X151.729 Y113.713 E61.80077
G1 X151.033 Y113.92 E61.83458
G1 X150.318 Y114.049 E61.86841
G1 X149.501 Y114.1 E61.90653
G1 X133.5 Y114.1 E62.6516
G1 X132.775 Y114.06 E62.68542
G1 X132.058 Y113.941 E62.71926
G1 X131.359 Y113.743 E62.75309
G1 X130.686 Y113.47 E62.78691
G1 X130.047 Y113.125 E62.82072
G1 X129.45 Y112.711 E62.85455
G1 X128.902 Y112.235 E62.88835
G1 X128.409 Y111.701 E62.92219
G1 X127.979 Y111.116 E62.956
G1 X127.615 Y110.487 E62.98984
G1 X127.322 Y109.822 E63.02367
G1 X127.104 Y109.129 E63.0575
G1 X126.964 Y108.417 E63.09129
G1 X126.9 Y107.5 E63.13409
G1 X126.9 Y69.1 E64.92216
G1 X108.1 Y69.1 E65.79757
G1 X108.1 Y107.5 E67.58563
G1 X108.06 Y108.225 E67.61944
G1 X107.941 Y108.942 E67.65328
G1 X107.743 Y109.641 E67.68711
G1 X107.47 Y110.314 E67.72093
G1 X107.125 Y110.953 E67.75474
G1 X106.711 Y111.55 E67.78857
G1 X106.235 Y112.098 E67.82237
G1 X105.701 Y112.591 E67.85621
G1 X105.116 Y113.021 E67.89002
G1 X104.487 Y113.385 E67.92386
G1 X103.822 Y113.678 E67.9577
G1 X103.129 Y113.896 E67.99153
G1 X102.417 Y114.036 E68.02532
G1 X101.5 Y114.1 E68.06812
G1 X85.499 Y114.1 E68.81319
G1 X84.774 Y114.06 E68.847
G1 X84.057 Y113.941 E68.88085
G1 X83.358 Y113.743 E68.91468
G1 X82.685 Y113.47 E68.94849
G1 X82.046 Y113.125 E68.98231
G1 X81.449 Y112.711 E69.01614
G1 X80.901 Y112.235 E69.04994
G1 X80.408 Y111.701 E69.08378
G1 X79.978 Y111.116 E69.11758
G1 X79.614 Y110.487 E69.15142
G1 X79.321 Y109.822 E69.18526
G1 X79.081 Y109.04 E69.22335
G1 X69.207 Y67.889 E71.1939
G1 X68.95 Y67.711 E71.20846
G1 X68.402 Y67.235 E71.24226
G1 X67.909 Y66.701 E71.2761
G1 X67.479 Y66.116 E71.30991
G1 X67.115 Y65.487 E71.34375
G1 X66.822 Y64.822 E71.37759
G1 X66.604 Y64.129 E71.41141
G1 X66.464 Y63.417 E71.4452
G1 X66.4 Y62.5 E71.488
G1 X66.4 Y57.5 E71.72083
G1 X66.44 Y56.775 E71.75464
G1 X66.559 Y56.058 E71.78848
G1 X66.757 Y55.359 E71.82231
G1 X67.03 Y54.686 E71.85613
G1 X67.375 Y54.047 E71.88994
G1 X67.789 Y53.45 E71.92377
G0 F6000 X68.185 Y53.594
G1 F1200 X68.659 Y53.073 E71.95657
G1 X69.189 Y52.609 E71.98937
G1 X69.768 Y52.209 E72.02214
G1 X70.389 Y51.877 E72.05493
G1 X71.043 Y51.617 E72.0877
G1 X71.723 Y51.433 E72.1205
G1 X72.419 Y51.327 E72.15328
G1 X73 Y51.3 E72.18036
G1 X162 Y51.3 E76.32458
G1 X162.703 Y51.34 E76.35737
G1 X163.397 Y51.459 E76.39015
G1 X164.072 Y51.657 E76.42291
G1 X164.721 Y51.929 E76.45567
G1 X165.335 Y52.274 E76.48847
G1 X165.906 Y52.685 E76.52123
G1 X166.427 Y53.159 E76.55403
G1 X166.891 Y53.689 E76.58683
G1 X167.291 Y54.268 E76.6196
G1 X167.623 Y54.889 E76.65238
G1 X167.883 Y55.543 E76.68516
G1 X168.067 Y56.223 E76.71796
G1 X168.173 Y56.919 E76.75074
G1 X168.2 Y57.5 E76.77782
G1 X168.2 Y62.5 E77.01064
G1 X168.16 Y63.203 E77.04343
G1 X168.041 Y63.897 E77.07622
G1 X167.843 Y64.572 E77.10897
G1 X167.571 Y65.221 E77.14174
G1 X167.226 Y65.835 E77.17454
G1 X166.815 Y66.406 E77.2073
G1 X166.341 Y66.927 E77.24009
G1 X165.811 Y67.391 E77.27289
G1 X165.44 Y67.647 E77.29388
G1 X155.53 Y108.947 E79.27157
G1 X155.327 Y109.621 E79.30435
G1 X155.049 Y110.268 E79.33714
G1 X154.7 Y110.879 E79.3699
G1 X154.283 Y111.446 E79.40268
G1 X153.805 Y111.963 E79.43546
G1 X153.271 Y112.422 E79.46825
G1 X152.689 Y112.818 E79.50103
G1 X152.065 Y113.145 E79.53383
G1 X151.409 Y113.399 E79.56659
G1 X150.728 Y113.577 E79.59937
G1 X150.031 Y113.677 E79.63215
G1 X149.501 Y113.7 E79.65686
G1 X133.5 Y113.7 E80.40193
G1 X132.797 Y113.66 E80.43472
G1 X132.103 Y113.541 E80.4675
G1 X131.428 Y113.343 E80.50026
G1 X130.779 Y113.071 E80.53303
G1 X130.165 Y112.726 E80.56582
G1 X129.594 Y112.315 E80.59858
G1 X129.073 Y111.841 E80.63138
G1 X128.609 Y111.311 E80.66418
G1 X128.209 Y110.732 E80.69695
G1 X127.877 Y110.111 E80.72974
G1 X127.617 Y109.457 E80.76251
G1 X127.433 Y108.777 E80.79531
